icons/Qogir/scalable/apps/preferences-system-network-server-mail.svg

<svg width="64" height="64" version="1.1" xmlns="http://www.w3.org/2000/svg">
 <rect x="6" y="6" width="52" height="52" rx="2" ry="2" fill="#3e4245" stroke="#000" stroke-width="2" style="paint-order:stroke markers fill"/>
 <rect x="6" y="6" width="52" height="52" rx="2" ry="2" fill="#3e4245" style="paint-order:stroke markers fill"/>
 <path d="m12 15h24v2h-24z" fill="#fff"/>
 <circle cx="43" cy="16" r="2" fill="#72d406"/>
 <circle cx="51" cy="16" r="2" fill="#72d406"/>
 <g fill="#fff">
  <path d="m12 31h24v2h-24z"/>
  <circle cx="43" cy="32" r="2"/>
  <circle cx="51" cy="32" r="2"/>
  <path d="m12 47h24v2h-24z"/>
 </g>
 <g fill-rule="evenodd">
  <rect x="6" y="22" width="52" height="3" rx="0" ry="0" fill="#00000f" opacity=".5" style="paint-order:fill markers stroke"/>
  <rect x="6" y="38" width="52" height="3" rx="0" ry="0" fill="#00000f" opacity=".5" style="paint-order:fill markers stroke"/>
  <circle cx="44.974" cy="45" r="18" fill="#5687e3" stroke="#3a62b6" stroke-width="2" style="paint-order:fill markers stroke"/>
  <circle cx="44.974" cy="45" r="18" fill="#5687e3" style="paint-order:fill markers stroke"/>
  <path d="m32.949 33a17 17 0 0 0-1.9746 2.3594v19.252a17 17 0 0 0 1.9727 2.3887h24.053a17 17 0 0 0 1.9746-2.3594v-19.252a17 17 0 0 0-1.9727-2.3887zm1.4395 2h21.172l-10.586 10.586zm-1.4141 1.4141 7.8672 7.8672-7.8672 9.1797v-17.047zm24 0v17.051l-7.8672-9.1836 7.8672-7.8672zm-14.715 9.2852 2.7148 2.7148 2.7148-2.7148 7.9688 9.3008h-21.371l7.9727-9.3008z" fill="#fff" style="paint-order:fill markers stroke"/>
 </g>
</svg>

<svg xmlns="http://www.w3.org/2000/svg" width="64" height="64"><rect width="52" height="52" x="6" y="6" fill="#3e4245" stroke="#000" stroke-width="2" rx="2" ry="2" style="paint-order:stroke markers fill"/><rect width="52" height="52" x="6" y="6" fill="#3e4245" rx="2" ry="2" style="paint-order:stroke markers fill"/><path fill="#fff" d="M12 15h24v2H12z"/><circle cx="43" cy="16" r="2" fill="#72d406"/><circle cx="51" cy="16" r="2" fill="#72d406"/><g fill="#fff"><path d="M12 31h24v2H12z"/><circle cx="43" cy="32" r="2"/><circle cx="51" cy="32" r="2"/><path d="M12 47h24v2H12z"/></g><g fill-rule="evenodd"><rect width="52" height="3" x="6" y="22" fill="#00000f" opacity=".5" rx="0" ry="0" style="paint-order:fill markers stroke"/><rect width="52" height="3" x="6" y="38" fill="#00000f" opacity=".5" rx="0" ry="0" style="paint-order:fill markers stroke"/><circle cx="44.974" cy="45" r="18" fill="#5687e3" stroke="#3a62b6" stroke-width="2" style="paint-order:fill markers stroke"/><circle cx="44.974" cy="45" r="18" fill="#5687e3" style="paint-order:fill markers stroke"/><path fill="#fff" d="M32.949 33a17 17 0 0 0-1.975 2.36v19.25A17 17 0 0 0 32.947 57H57a17 17 0 0 0 1.975-2.36V35.389A17 17 0 0 0 57.002 33zm1.44 2H55.56L44.976 45.586zm-1.415 1.414 7.868 7.867-7.868 9.18zm24 0v17.051l-7.867-9.184zM42.26 45.7l2.715 2.715L47.69 45.7l7.968 9.3H34.287z" style="paint-order:fill markers stroke"/></g></svg>
